src/rounded/icons/fi-rr-lock-alt.svg

<svg id="Layer_1" height="512" viewBox="0 0 24 24" width="512" xmlns="http://www.w3.org/2000/svg" data-name="Layer 1"><path d="m12 0a12 12 0 1 0 12 12 12.013 12.013 0 0 0 -12-12zm0 22a10 10 0 1 1 10-10 10.011 10.011 0 0 1 -10 10zm0-15a2.993 2.993 0 0 0 -1 5.816v3.184a1 1 0 0 0 2 0v-3.184a2.993 2.993 0 0 0 -1-5.816zm0 4a1 1 0 1 1 1-1 1 1 0 0 1 -1 1z"/></svg>

<svg id="Layer_1" data-name="Layer 1" xmlns="http://www.w3.org/2000/svg" viewBox="0 0 24 24"><path d="M12,0A12,12,0,1,0,24,12,12.013,12.013,0,0,0,12,0Zm0,22A10,10,0,1,1,22,12,10.011,10.011,0,0,1,12,22ZM12,7a2.993,2.993,0,0,0-1,5.816V16a1,1,0,0,0,2,0V12.816A2.993,2.993,0,0,0,12,7Zm0,4a1,1,0,1,1,1-1A1,1,0,0,1,12,11Z"/></svg>
